X: 22161
T: L'Air Mignonne
R: barndance
M: 4/4
K: Amajor
EAB|c>cce cBAB|c>cce cBAB|F3A E3 c|BAGA BEAB|
c>cce cBAB|c>cce cBAB|F3A E3 c|BAGB ABce||
f>ffa fece|f>ffa fecA|F3A E3c|BAGA BEce|
f>ffa fece|f>ffa fecA|F3 A E3c|BAcB AEAB||

